public/images/Ethereum.svg

<svg width="71" height="70" viewBox="0 0 71 70" fill="none" xmlns="http://www.w3.org/2000/svg">
<path d="M35.4131 69.3561C54.743 69.3561 70.4131 53.91 70.4131 34.8561C70.4131 15.8023 54.743 0.35614 35.4131 0.35614C16.0831 0.35614 0.413086 15.8023 0.413086 34.8561C0.413086 53.91 16.0831 69.3561 35.4131 69.3561Z" fill="#6481E7"/>
<path fill-rule="evenodd" clip-rule="evenodd" d="M20.1221 36.2573L35.8218 45.4058V10.5788L20.1221 36.2573Z" fill="white"/>
<path fill-rule="evenodd" clip-rule="evenodd" d="M35.8223 10.5788V45.4058L51.522 36.2573L35.8223 10.5788Z" fill="#C1CCF5"/>
<path fill-rule="evenodd" clip-rule="evenodd" d="M35.8229 29.2272L20.1221 36.2605L35.8218 45.409L51.5226 36.2616L35.8229 29.2272Z" fill="#8299EC"/>
<path fill-rule="evenodd" clip-rule="evenodd" d="M35.8229 29.2272L20.1221 36.2605L35.8218 45.409L35.8229 29.2272Z" fill="#C1CCF5"/>
<path fill-rule="evenodd" clip-rule="evenodd" d="M20.1221 39.196L35.8218 61.0047V48.3395L20.1221 39.196Z" fill="white"/>
<path fill-rule="evenodd" clip-rule="evenodd" d="M35.8223 48.3395V61.0055L51.5323 39.196L35.8223 48.3395Z" fill="#C1CCF5"/>
</svg>

<svg xmlns="http://www.w3.org/2000/svg" width="71" height="70" fill="none"><path fill="#6481E7" d="M35.413 69.356c19.33 0 35-15.446 35-34.5s-15.67-34.5-35-34.5-35 15.446-35 34.5 15.67 34.5 35 34.5"/><path fill="#fff" fill-rule="evenodd" d="m20.122 36.257 15.7 9.149V10.579z" clip-rule="evenodd"/><path fill="#C1CCF5" fill-rule="evenodd" d="M35.822 10.579v34.827l15.7-9.149z" clip-rule="evenodd"/><path fill="#8299EC" fill-rule="evenodd" d="m35.823 29.227-15.7 7.034 15.699 9.148 15.7-9.147z" clip-rule="evenodd"/><path fill="#C1CCF5" fill-rule="evenodd" d="m35.823 29.227-15.7 7.034 15.699 9.148z" clip-rule="evenodd"/><path fill="#fff" fill-rule="evenodd" d="m20.122 39.196 15.7 21.809V48.339z" clip-rule="evenodd"/><path fill="#C1CCF5" fill-rule="evenodd" d="M35.822 48.34v12.665l15.71-21.809z" clip-rule="evenodd"/></svg>
